X: 33515
T: Raincheck
R: reel
M: 4/4
K: Dmixolydian
M:7/8
CEG|:cA BG FEF|GF EF GAB|cA BG FEF|1 dD dD CEG:|2 dD dD dDd||
|:A2 B2 FEF|A,B, CE GAD|A2 B2 A,B,C|EG AD ADB:|
|:cA BG FEF|GF EF GAB|cA BG FEF|1 dD dD CEG:|2 dD dD dDd||
|:A2 G=F EDE|CE AE GFG|A2 G=F EDE|1 CE AE cEB:|2 CE AE cEd||
|:F2 G2 AGA|CD EF .GGA|F2 G2 AGA|cB AG .FFG:|

